svg/color/aion.svg

<?xml version="1.0" encoding="UTF-8" ?>
<!DOCTYPE svg PUBLIC "-//W3C//DTD SVG 1.1//EN" "http://www.w3.org/Graphics/SVG/1.1/DTD/svg11.dtd">
<svg width="239pt" height="250pt" viewBox="0 0 239 250" version="1.1" xmlns="http://www.w3.org/2000/svg">
<g id="#ffffffff">
<path fill="#ffffff" opacity="1.00" d=" M 0.00 0.00 L 87.95 0.00 C 58.70 82.49 29.35 164.94 0.04 247.41 C 17.76 247.53 35.48 247.46 53.19 247.45 C 69.99 201.08 86.27 154.51 102.87 108.06 C 108.49 92.64 113.60 77.03 119.55 61.74 C 141.86 123.56 163.45 185.65 185.80 247.45 C 203.52 247.45 221.24 247.53 238.95 247.41 C 209.61 164.95 180.35 82.45 150.98 0.00 L 239.00 0.00 L 239.00 250.00 L 123.38 250.00 C 129.62 248.61 135.76 245.93 140.12 241.12 C 147.99 233.19 150.07 220.43 145.69 210.26 C 141.80 201.12 132.83 194.24 122.89 193.27 C 109.25 191.28 95.34 200.74 91.97 214.05 C 90.33 220.91 90.85 228.47 94.25 234.73 C 98.72 243.35 107.80 249.27 117.46 250.00 L 0.00 250.00 L 0.00 0.00 Z" />
</g>
<g id="#000000ff">
<path fill="#000000" opacity="1.00" d=" M 87.95 0.00 L 150.98 0.00 C 180.35 82.45 209.61 164.95 238.95 247.41 C 221.24 247.53 203.52 247.45 185.80 247.45 C 163.45 185.65 141.86 123.56 119.55 61.74 C 113.60 77.03 108.49 92.64 102.87 108.06 C 86.27 154.51 69.99 201.08 53.19 247.45 C 35.48 247.46 17.76 247.53 0.04 247.41 C 29.35 164.94 58.70 82.49 87.95 0.00 Z" />
<path fill="#000000" opacity="1.00" d=" M 91.97 214.05 C 95.34 200.74 109.25 191.28 122.89 193.27 C 132.83 194.24 141.80 201.12 145.69 210.26 C 150.07 220.43 147.99 233.19 140.12 241.12 C 135.76 245.93 129.62 248.61 123.38 250.00 L 117.46 250.00 C 107.80 249.27 98.72 243.35 94.25 234.73 C 90.85 228.47 90.33 220.91 91.97 214.05 Z" />
</g>
</svg>

<?xml version="1.0" encoding="utf-8"?>
<!-- Generator: Adobe Illustrator 26.0.3, SVG Export Plug-In . SVG Version: 6.00 Build 0)  -->
<svg version="1.1" id="Layer_1" xmlns="http://www.w3.org/2000/svg" xmlns:xlink="http://www.w3.org/1999/xlink" x="0px" y="0px"
	 viewBox="0 0 239 250" style="enable-background:new 0 0 239 250;" xml:space="preserve">
<g id="_x23_000000ff">
	<path d="M87.9,0h63c29.4,82.4,58.6,164.9,88,247.4c-17.7,0.1-35.4,0-53.1,0c-22.4-61.8-43.9-123.9-66.2-185.7
		c-6,15.3-11.1,30.9-16.7,46.3c-16.6,46.4-32.9,93-49.7,139.4c-17.7,0-35.4,0.1-53.1,0C29.4,164.9,58.7,82.5,87.9,0z"/>
	<path d="M92,214.1c3.4-13.3,17.3-22.8,30.9-20.8c9.9,1,18.9,7.8,22.8,17c4.4,10.2,2.3,22.9-5.6,30.9c-4.4,4.8-10.5,7.5-16.7,8.9
		h-5.9c-9.7-0.7-18.7-6.6-23.2-15.3C90.8,228.5,90.3,220.9,92,214.1z"/>
</g>
</svg>
